img/brush.svg

<svg width="125" height="100" viewBox="0 0 125 100" fill="none" xmlns="http://www.w3.org/2000/svg">
<path d="M65.25 76.9336C65.2683 77.3369 65.2851 77.7321 65.2852 78.126C65.2852 89.8683 54.1416 99.5 40.2021 99.5H7.30957C3.46631 99.5 0.5 96.8601 0.5 93.75C0.500247 90.6401 3.46647 88.001 7.30957 88.001H8.40625C12.7518 88.0008 15.6968 84.0213 15.2529 80.332L15.252 80.3311L15.1943 79.7861C15.1444 79.2387 15.1191 78.6823 15.1191 78.126C15.1194 66.7182 25.6794 57.2799 39.0586 56.7793L65.25 76.9336ZM106.966 2.30176C111.038 -0.318661 116.72 -0.0523931 120.432 2.91602C124.118 5.86369 124.785 10.5989 122.081 14.1768L85.1465 63.0195C81.7803 67.4402 76.3719 70.3905 70.334 71.1777L44.3623 51.1865C44.4899 45.7867 47.4219 40.7068 52.4023 37.3154L52.8984 36.9873L106.966 2.30176Z" fill="white" stroke="black" stroke-width="0.5"/>
</svg>

<svg xmlns="http://www.w3.org/2000/svg" width="125" height="100" fill="none" viewBox="0 0 125 100"><path fill="#fff" stroke="#000" stroke-width=".5" d="M65.25 76.934c.018.403.035.798.035 1.192 0 11.742-11.143 21.374-25.083 21.374H7.31C3.466 99.5.5 96.86.5 93.75s2.966-5.749 6.81-5.749h1.096c4.346 0 7.29-3.98 6.847-7.669h-.001l-.058-.546a18 18 0 0 1-.075-1.66c0-11.408 10.56-20.846 23.94-21.347zm41.716-74.632c4.072-2.62 9.754-2.354 13.466.614 3.686 2.948 4.353 7.683 1.649 11.26L85.147 63.02c-3.367 4.42-8.775 7.37-14.813 8.158L44.362 51.187c.128-5.4 3.06-10.48 8.04-13.872l.496-.328z"/></svg>
